TileServer und Tiles/svg/9/44_2.svg

<?xml version='1.0' encoding='UTF-8' standalone='no'?>
<svg xmlns="http://www.w3.org/2000/svg" width="497pt" viewBox="0 0 497 279" xmlns:xlink="http://www.w3.org/1999/xlink" height="279pt">
 <defs style="stroke:none;" overflow="visible">
  <path id="glyph0-4" d="M 5.5 -1.171875 L 5.5 -3.703125 L 8.5 -3.703125 L 8.5 -4.4375 L 2.625 -4.4375 L 2.625 -7.53125 L 8.40625 -7.53125 L 8.40625 -8.265625 L 1.71875 -8.265625 L 1.71875 -3.703125 L 4.59375 -3.703125 L 4.59375 -1.171875 L 0.578125 -1.171875 L 0.578125 -0.421875 L 9.53125 -0.421875 L 9.53125 -1.171875 Z M 5.5 -1.171875 "/>
  <path id="glyph0-3" d="M 7.453125 -5.859375 L 2.65625 -5.859375 L 2.65625 -7 L 7.453125 -7 Z M 8.34375 -8.828125 L 7.453125 -8.828125 L 7.453125 -7.703125 L 2.65625 -7.703125 L 2.65625 -8.828125 L 1.765625 -8.828125 L 1.765625 -5.140625 L 8.34375 -5.140625 Z M 9.5 -3.484375 L 9.5 -4.21875 L 0.578125 -4.21875 L 0.578125 -3.484375 L 4.59375 -3.484375 L 4.59375 -2.328125 L 1.578125 -2.328125 L 1.578125 -1.609375 L 7.5 -1.609375 L 7.5 0.828125 L 8.40625 0.828125 L 8.40625 -2.328125 L 5.484375 -2.328125 L 5.484375 -3.484375 Z M 9.5 -3.484375 "/>
  <path id="glyph0-2" d="M 7.796875 -6.5 L 7.796875 -5.1875 L 5.21875 -5.1875 L 5.21875 -4.4375 L 7.796875 -4.4375 L 7.796875 -3.140625 L 8.71875 -3.140625 L 8.71875 -9.046875 L 7.796875 -9.046875 L 7.796875 -7.234375 L 5.5625 -7.234375 C 5.625 -7.578125 5.671875 -7.9375 5.671875 -8.3125 L 1.21875 -8.3125 L 1.21875 -7.578125 L 4.703125 -7.578125 C 4.53125 -5.875 3.0625 -4.5625 0.71875 -3.859375 L 1.078125 -3.140625 C 3.203125 -3.765625 4.703125 -4.921875 5.328125 -6.5 Z M 5.484375 0.0625 C 4.03125 0.0625 3.109375 -0.390625 3.109375 -1.140625 C 3.109375 -1.875 4.03125 -2.328125 5.484375 -2.328125 C 6.9375 -2.328125 7.859375 -1.875 7.859375 -1.140625 C 7.859375 -0.390625 6.9375 0.0625 5.484375 0.0625 Z M 5.484375 -3.03125 C 3.5 -3.03125 2.21875 -2.328125 2.21875 -1.140625 C 2.21875 0.0625 3.5 0.765625 5.484375 0.765625 C 7.484375 0.765625 8.75 0.0625 8.75 -1.140625 C 8.75 -2.328125 7.484375 -3.03125 5.484375 -3.03125 Z M 5.484375 -3.03125 "/>
  <path id="glyph0-1" d="M 6.4375 -8.015625 L 3.96875 -8.015625 L 3.96875 -9.140625 L 3.0625 -9.140625 L 3.0625 -8.015625 L 0.609375 -8.015625 L 0.609375 -7.28125 L 6.4375 -7.28125 Z M 2.03125 -5.03125 C 2.03125 -5.671875 2.625 -6.109375 3.515625 -6.109375 C 4.421875 -6.109375 5.03125 -5.671875 5.03125 -5.03125 C 5.03125 -4.375 4.421875 -3.953125 3.515625 -3.953125 C 2.625 -3.953125 2.03125 -4.375 2.03125 -5.03125 Z M 5.890625 -5.03125 C 5.890625 -6.109375 4.921875 -6.78125 3.515625 -6.78125 C 2.109375 -6.78125 1.171875 -6.109375 1.171875 -5.03125 C 1.171875 -3.953125 2.109375 -3.28125 3.515625 -3.28125 C 4.921875 -3.28125 5.890625 -3.953125 5.890625 -5.03125 Z M 2.921875 -1.84375 L 7.34375 -1.84375 L 7.34375 -0.046875 L 2.921875 -0.046875 Z M 2.046875 0.6875 L 8.234375 0.6875 L 8.234375 -2.546875 L 2.046875 -2.546875 Z M 9.703125 -6.421875 L 8.234375 -6.421875 L 8.234375 -9.046875 L 7.34375 -9.046875 L 7.34375 -3.109375 L 8.234375 -3.109375 L 8.234375 -5.671875 L 9.703125 -5.671875 Z M 9.703125 -6.421875 "/>
  <path id="glyph0-0" d="M 1.09375 1.3125 L 9.90625 1.3125 L 9.90625 -9.6875 L 1.09375 -9.6875 Z M 5.5 -4.625 L 2 -9.125 L 9 -9.125 Z M 5.859375 -4.1875 L 9.34375 -8.671875 L 9.34375 0.3125 Z M 2 0.765625 L 5.5 -3.734375 L 9 0.765625 Z M 1.65625 -8.671875 L 5.140625 -4.1875 L 1.65625 0.3125 Z M 1.65625 -8.671875 "/>
 </defs>
 <image width="497" xlink:href="svg/9/44_2.jpg" height="279"/>
 <g>
  <path d="M 114.457031 69.96875 L 111.988281 69.96875 L 111.988281 68.84375 L 111.082031 68.84375 L 111.082031 69.96875 L 108.628906 69.96875 L 108.628906 70.703125 L 114.457031 70.703125 Z M 110.050781 72.953125 C 110.050781 72.3125 110.644531 71.875 111.535156 71.875 C 112.441406 71.875 113.050781 72.3125 113.050781 72.953125 C 113.050781 73.609375 112.441406 74.03125 111.535156 74.03125 C 110.644531 74.03125 110.050781 73.609375 110.050781 72.953125 Z M 113.910156 72.953125 C 113.910156 71.875 112.941406 71.203125 111.535156 71.203125 C 110.128906 71.203125 109.191406 71.875 109.191406 72.953125 C 109.191406 74.03125 110.128906 74.703125 111.535156 74.703125 C 112.941406 74.703125 113.910156 74.03125 113.910156 72.953125 Z M 110.941406 76.140625 L 115.363281 76.140625 L 115.363281 77.9375 L 110.941406 77.9375 Z M 110.066406 78.671875 L 116.253906 78.671875 L 116.253906 75.4375 L 110.066406 75.4375 Z M 117.722656 71.5625 L 116.253906 71.5625 L 116.253906 68.9375 L 115.363281 68.9375 L 115.363281 74.875 L 116.253906 74.875 L 116.253906 72.3125 L 117.722656 72.3125 Z M 117.722656 71.5625 " transform=" rotate(  340 128.258 74.9834) " style="fill:none;stroke-width:3;stroke-linecap:butt;stroke-linejoin:round;stroke:rgb(100%,100%,100%);stroke-opacity:0.6;stroke-miterlimit:10;"/>
  <path d="M 125.933594 71.484375 L 125.933594 72.796875 L 123.355469 72.796875 L 123.355469 73.546875 L 125.933594 73.546875 L 125.933594 74.84375 L 126.855469 74.84375 L 126.855469 68.9375 L 125.933594 68.9375 L 125.933594 70.75 L 123.699219 70.75 C 123.761719 70.40625 123.808594 70.046875 123.808594 69.671875 L 119.355469 69.671875 L 119.355469 70.40625 L 122.839844 70.40625 C 122.667969 72.109375 121.199219 73.421875 118.855469 74.125 L 119.214844 74.84375 C 121.339844 74.21875 122.839844 73.0625 123.464844 71.484375 Z M 123.621094 78.046875 C 122.167969 78.046875 121.246094 77.59375 121.246094 76.84375 C 121.246094 76.109375 122.167969 75.65625 123.621094 75.65625 C 125.074219 75.65625 125.996094 76.109375 125.996094 76.84375 C 125.996094 77.59375 125.074219 78.046875 123.621094 78.046875 Z M 123.621094 74.953125 C 121.636719 74.953125 120.355469 75.65625 120.355469 76.84375 C 120.355469 78.046875 121.636719 78.75 123.621094 78.75 C 125.621094 78.75 126.886719 78.046875 126.886719 76.84375 C 126.886719 75.65625 125.621094 74.953125 123.621094 74.953125 Z M 123.621094 74.953125 " transform=" rotate(  340 128.258 74.9834) " style="fill:none;stroke-width:3;stroke-linecap:butt;stroke-linejoin:round;stroke:rgb(100%,100%,100%);stroke-opacity:0.6;stroke-miterlimit:10;"/>
  <path d="M 135.710938 72.125 L 130.914062 72.125 L 130.914062 70.984375 L 135.710938 70.984375 Z M 136.601562 69.15625 L 135.710938 69.15625 L 135.710938 70.28125 L 130.914062 70.28125 L 130.914062 69.15625 L 130.023438 69.15625 L 130.023438 72.84375 L 136.601562 72.84375 Z M 137.757812 74.5 L 137.757812 73.765625 L 128.835938 73.765625 L 128.835938 74.5 L 132.851562 74.5 L 132.851562 75.65625 L 129.835938 75.65625 L 129.835938 76.375 L 135.757812 76.375 L 135.757812 78.8125 L 136.664062 78.8125 L 136.664062 75.65625 L 133.742188 75.65625 L 133.742188 74.5 Z M 137.757812 74.5 " transform=" rotate(  340 128.258 74.9834) " style="fill:none;stroke-width:3;stroke-linecap:butt;stroke-linejoin:round;stroke:rgb(100%,100%,100%);stroke-opacity:0.6;stroke-miterlimit:10;"/>
  <path d="M 143.878906 76.8125 L 143.878906 74.28125 L 146.878906 74.28125 L 146.878906 73.546875 L 141.003906 73.546875 L 141.003906 70.453125 L 146.785156 70.453125 L 146.785156 69.71875 L 140.097656 69.71875 L 140.097656 74.28125 L 142.972656 74.28125 L 142.972656 76.8125 L 138.957031 76.8125 L 138.957031 77.5625 L 147.910156 77.5625 L 147.910156 76.8125 Z M 143.878906 76.8125 " transform=" rotate(  340 128.258 74.9834) " style="fill:none;stroke-width:3;stroke-linecap:butt;stroke-linejoin:round;stroke:rgb(100%,100%,100%);stroke-opacity:0.6;stroke-miterlimit:10;"/>
  <g transform=" rotate(  340 128.258 74.9834) " style="fill:rgb(49.803922%,34.117647%,49.411765%);fill-opacity:1;">
   <use xlink:href="#glyph0-1" y="77.983418" x="108.017971"/>
   <use xlink:href="#glyph0-2" y="77.983418" x="118.137971"/>
   <use xlink:href="#glyph0-3" y="77.983418" x="128.257971"/>
   <use xlink:href="#glyph0-4" y="77.983418" x="138.377971"/>
  </g>
 </g>
</svg>

<svg xmlns="http://www.w3.org/2000/svg" xmlns:xlink="http://www.w3.org/1999/xlink" viewBox="0 0 497 279"> <defs overflow="visible" style="stroke:none">  <path id="d" d="M5.5-1.2v-2.5h3v-.7H2.6v-3.1h5.8v-.8H1.7v4.6h2.9v2.5h-4v.8h9v-.8Zm0 0"/>  <path id="c" d="M7.5-5.9H2.7V-7h4.8Zm.8-3h-.8v1.3H2.7v-1.2h-1v3.7h6.7Zm1.2 5.5v-.8h-9v.7h4.1v1.2h-3v.7h6V.8h.9v-3.1H5.4v-1.2Zm0-.1"/>  <path id="b" d="M7.8-6.5v1.3H5.2v.8h2.6v1.3h1v-6H7.7v2H5.6a6 6 0 0 0 0-1.2H1.3v.7h3.4c-.2 1.7-1.6 3-4 3.7l.4.9c2.1-.8 3.6-2 4.2-3.5ZM5.5.1C4 0 3-.4 3-1.1c.1-.9 1.1-1.2 2.5-1.2s2.4.3 2.4 1.2c0 .7-1 1.1-2.4 1.1Zm0-3.1c-2 0-3.3.7-3.3 1.9S3.5.8 5.5.8c2 0 3.3-.8 3.3-2 0-1-1.3-1.8-3.3-1.8Zm0 0"/>  <path id="a" d="M6.4-8H4v-1.1H3v1H.7v.9h5.7ZM2-5c0-.7.6-1.1 1.5-1.1 1 0 1.5.4 1.5 1C5-4.3 4.4-4 3.5-4S2-4.4 2-5Zm4 0c-.1-1.1-1.1-1.8-2.5-1.8S1.2-6 1.2-5s1 1.7 2.3 1.7C5-3.3 6-4 6-5ZM2.9-1.8h4.4V0H3ZM2 .7h6.2v-3.2H2Zm7.7-7.1H8.2V-9h-.9v5.9h1v-2.6h1.3Zm0 0"/>  <path d="M1 1.3h9v-11H1Zm4.6-6L2-9h7Zm.3.6 3.4-4.6v9ZM2 .8l3.5-4.5L9 .8Zm-.3-9.5L5-4.2 1.7.3Zm0 0"/> </defs> <image xlink:href="svg/9/44_2.jpg" width="497" height="279"/> <path d="M114.5 70H112v-1.2h-1V70h-2.3v.7h5.8Zm-4.5 3c0-.7.6-1.1 1.5-1.1 1 0 1.6.4 1.6 1-.1.8-.7 1.1-1.6 1.1-.9 0-1.4-.4-1.4-1Zm3.9 0c.1-1.1-.9-1.8-2.4-1.8s-2.3.7-2.3 1.8c0 1 1 1.7 2.3 1.7 1.5 0 2.5-.7 2.5-1.7Zm-2.9 3h4.4v2h-4.5Zm-.9 2.7h6.2v-3.3H110Zm7.6-7.1h-1.4v-2.7h-1V75h1.1v-2.7h1.3Zm8.3-.1v1.3h-2.7v.7h2.6v1.3h1.1V69h-1.1v1.7h-2.2a6 6 0 0 0 .1-.9h-4.4v.6h3.4c-.1 1.7-1.6 3-4 3.7l.5.7c2-.6 3.5-1.7 4.2-3.3Zm-2.5 6.5c-1.3 0-2.3-.4-2.3-1.2 0-.7 1-1.1 2.4-1.1 1.5 0 2.4.3 2.4 1.1s-1 1.2-2.4 1.2Zm.1-3c-2 0-3.2.7-3.2 1.8 0 1.2 1.2 2 3.2 2s3.4-.8 3.4-2c-.1-1.1-1.4-1.8-3.4-1.8Zm12.1-2.9H131V71h4.7Zm.9-3h-.9v1.3H131v-1.2h-1v3.6h6.6Zm1.2 5.5v-.8h-9v.7h4v1.2h-2.9v.7h5.9v2.4h.9v-3.1h-3v-1.2ZM143.9 76.8v-2.5h3v-.8H141v-3h5.8v-.8H140v4.6h3v2.5h-4v.8h9v-.8Zm0 0" style="fill:none;stroke-width:3;stroke-linecap:butt;stroke-linejoin:round;stroke:#fff;stroke-opacity:.6;stroke-miterlimit:10" transform=" rotate(  340 128.258 74.9834) "/> <g style="fill:#7f577e;fill-opacity:1" transform=" rotate(  340 128.258 74.9834) ">  <use xlink:href="#a" x="108" y="78"/>  <use xlink:href="#b" x="118.1" y="78"/>  <use xlink:href="#c" x="128.3" y="78"/>  <use xlink:href="#d" x="138.4" y="78"/> </g></svg>
